docs/media/illustrations/bubbles-duo.svg

<?xml version="1.0" encoding="UTF-8"?>
<svg version="1.1" viewBox="0 0 101 100" xmlns="http://www.w3.org/2000/svg" xmlns:xlink="http://www.w3.org/1999/xlink">
    <!--Generated by IJSVG (https://github.com/iconjar/IJSVG)-->
    <g transform="matrix(1,0,0,1,-516,-100)">
        <g transform="matrix(1,0,0,1,567,146.786)">
            <g transform="matrix(0.0697565,-0.997564,0.997564,0.0697565,0,0)">
                <path fill="#F6F5FA" stroke="none" d="M564.603,106.397c-13.583,-17.9186 -34.073,2.59129 -32.8532,15.4293c1.21985,12.838 8.64998,11.7717 8.64998,21.2156c0,9.44385 -18.8775,25.1062 -9.22477,39.6291c20.3404,30.603 82.8798,-5.30234 73.4324,-42.6496c-9.44732,-37.3472 -26.4215,-15.7059 -40.0045,-33.6244Z" transform="matrix(1,0,0,1,-567,-146.786)"></path>
            </g>
        </g>
        <path fill="#FFF" stroke="#745BCC" stroke-width="1" d="M605.41,169.603l-0.000124,-37.202c0,-2.88416 -2.34105,-5.19498 -5.30193,-5.19407l-52.6666,-0.000158c-2.86911,0 -5.19499,2.32588 -5.19499,5.19499v37.2073c0,2.86056 2.31962,5.17271 5.19923,5.17265l16.3971,1e-05v11.622c0,0.350598 0.424039,0.526009 0.671719,0.277869l11.8777,-11.8999h0.207379l23.5378,0.000137c2.85491,0.066945 5.20186,-2.21379 5.27261,-5.17889Z"></path>
        <path fill="#E5E1F8" stroke="none" d="M604.91,132.401c0,-2.60653 -2.11569,-4.6949 -4.80193,-4.69407l-52.6666,-0.000158c-2.59297,0 -4.69499,2.10202 -4.69499,4.69499v1.20728l62.1636,-0.000196l-6.8e-05,-1.20786Z"></path>
        <path fill="#745BCF" stroke="none" d="M556.04,148.592c-0.493374,0 -0.893332,-0.399958 -0.893332,-0.893332c0,-0.493374 0.399958,-0.893332 0.893332,-0.893332h25.6163c0.493373,0 0.893332,0.399958 0.893332,0.893332c0,0.493374 -0.399959,0.893332 -0.893332,0.893332h-25.6163Z"></path>
        <path fill="#745BCF" stroke="none" d="M556.04,155.292c-0.493374,0 -0.893332,-0.399958 -0.893332,-0.893332c0,-0.493373 0.399958,-0.893332 0.893332,-0.893332h35.0633c0.493374,0 0.893333,0.399959 0.893333,0.893332c0,0.493374 -0.399959,0.893332 -0.893333,0.893332h-35.0633Z"></path>
        <path fill="#745BCF" stroke="none" d="M556.04,161.992c-0.493374,0 -0.893332,-0.399959 -0.893332,-0.893332c0,-0.493374 0.399958,-0.893333 0.893332,-0.893333h35.0633c0.493374,0 0.893333,0.399959 0.893333,0.893333c0,0.493373 -0.399959,0.893332 -0.893333,0.893332h-35.0633Z"></path>
        <path fill="#FFF" stroke="#745BCF" stroke-width="1" d="M527.614,141.392h14.1304l7.03145,7.03145c0.247785,0.247785 0.67146,0.072294 0.67146,-0.278128v-6.75332h9.54052c1.78616,0 3.23413,-1.44797 3.23413,-3.23413v-22.0117c0,-1.78616 -1.44797,-3.23413 -3.23413,-3.23413l-31.2278,-1e-05c-1.78497,0.011112 -3.22613,1.45074 -3.23721,3.23158l-0.142941,22.0085c-1.6e-05,1.79118 1.44717,3.23993 3.23411,3.23993Z"></path>
        <path fill="#BDAAFF" stroke="#745BCC" stroke-width="1" d="M544.655,121.462l-0.013452,0.015105l-1.13771,1.22651l-0.365603,-0.415169l-0.738735,-0.839066c-1.34143,-1.59215 -3.72883,-1.85692 -5.40228,-0.598535c-1.22571,0.948416 -1.92587,2.4018 -1.89693,3.94776c-0.01863,1.66407 0.66469,3.28454 1.87681,4.4522l6.25207,5.78322c0.150103,0.138841 0.38155,0.139521 0.532466,0.001566l6.28903,-5.74873c1.24039,-1.18622 1.92901,-2.80722 1.91462,-4.51345c0.028755,-1.50779 -0.672551,-2.96062 -1.88136,-3.89612c-1.6878,-1.26602 -4.06705,-1.00811 -5.42893,0.584709Z"></path>
    </g>
</svg>

<?xml version="1.0" encoding="UTF-8"?>
<svg width="101px" height="100px" viewBox="0 0 101 100" version="1.1" xmlns="http://www.w3.org/2000/svg" xmlns:xlink="http://www.w3.org/1999/xlink">
    <!-- Generator: Sketch Beta 51 (57462) - http://www.bohemiancoding.com/sketch -->
    <title>Path 2 Copy 2</title>
    <desc>Created with Sketch Beta.</desc>
    <defs></defs>
    <g id="Biings-3" stroke="none" stroke-width="1" fill="none" fill-rule="evenodd">
        <g id="Illustrations" transform="translate(-516.000000, -100.000000)" fill-rule="nonzero">
            <path d="M564.603153,106.397455 C551.020161,88.4788707 530.530144,108.988745 531.749997,121.826771 C532.969849,134.664796 540.399977,133.598477 540.399977,143.042326 C540.399977,152.486175 521.522443,168.148478 531.175209,182.671458 C551.515635,213.274456 614.05497,177.369122 604.607654,140.021895 C595.160339,102.674669 578.186144,124.31604 564.603153,106.397455 Z" id="Path-2-Copy-2" fill="#F6F5FA" transform="translate(566.999897, 146.786185) rotate(-86.000000) translate(-566.999897, -146.786185) "></path>
            <path d="M605.409982,169.602815 L605.409858,132.400854 C605.409858,129.51669 603.068807,127.205874 600.107925,127.206789 L547.441329,127.206631 C544.572216,127.206631 542.246336,129.532511 542.246336,132.401624 L542.246336,169.608909 C542.246336,172.469473 544.565955,174.781615 547.445565,174.781558 L563.842694,174.781568 L563.842694,186.403554 C563.842694,186.754152 564.266733,186.929563 564.514413,186.681423 L576.392149,174.781568 L576.599528,174.781568 L600.137368,174.781705 C602.992274,174.84865 605.339224,172.567911 605.409982,169.602815 Z" id="Shape" stroke="#745BCC" fill="#FFFFFF"></path>
            <path d="M604.909858,132.400854 C604.909858,129.794323 602.79417,127.705959 600.107924,127.706789 L547.441329,127.706631 C544.848359,127.706631 542.746336,129.808653 542.746336,132.401624 L542.746336,133.608906 L604.909926,133.60871 L604.909858,132.400854 Z" id="Shape" fill="#E5E1F8"></path>
            <path d="M556.039651,148.592423 C555.546277,148.592423 555.146319,148.192465 555.146319,147.699091 C555.146319,147.205717 555.546277,146.805759 556.039651,146.805759 L581.655952,146.805759 C582.149325,146.805759 582.549284,147.205717 582.549284,147.699091 C582.549284,148.192465 582.149325,148.592423 581.655952,148.592423 L556.039651,148.592423 Z" id="Shape" fill="#745BCF"></path>
            <path d="M556.039651,155.292414 C555.546277,155.292414 555.146319,154.892456 555.146319,154.399082 C555.146319,153.905709 555.546277,153.50575 556.039651,153.50575 L591.102939,153.50575 C591.596313,153.50575 591.996272,153.905709 591.996272,154.399082 C591.996272,154.892456 591.596313,155.292414 591.102939,155.292414 L556.039651,155.292414 Z" id="path-3" fill="#745BCF"></path>
            <path d="M556.039651,161.992406 C555.546277,161.992406 555.146319,161.592447 555.146319,161.099074 C555.146319,160.6057 555.546277,160.205741 556.039651,160.205741 L591.102939,160.205741 C591.596313,160.205741 591.996272,160.6057 591.996272,161.099074 C591.996272,161.592447 591.596313,161.992406 591.102939,161.992406 L556.039651,161.992406 Z" id="path-3" fill="#745BCF"></path>
            <path d="M527.613821,141.392432 L541.744213,141.392432 L548.775666,148.423885 C549.023451,148.67167 549.447126,148.496179 549.447126,148.145757 L549.447126,141.392432 L558.987647,141.392432 C560.773808,141.392432 562.221776,139.944463 562.221776,138.158303 L562.221776,116.146598 C562.221776,114.360438 560.773808,112.912469 558.987647,112.91247 L527.759867,112.91246 C525.974898,112.923572 524.533737,114.363198 524.522652,116.144043 L524.379711,138.152506 C524.379695,139.943686 525.826883,141.392432 527.613821,141.392432 Z" id="Shape-Copy-6" stroke="#745BCF" fill="#FFFFFF"></path>
            <path d="M544.655301,121.462497 L544.641849,121.477602 L543.50414,122.704114 L543.138537,122.288945 L542.399802,121.449879 C541.058373,119.857734 538.670975,119.592962 536.997527,120.851344 C535.771817,121.79976 535.071655,123.253139 535.100596,124.799103 C535.081966,126.463171 535.765286,128.083644 536.977405,129.251299 L543.229473,135.034523 C543.379576,135.173364 543.611023,135.174044 543.761939,135.036089 L550.050967,129.287357 C551.291358,128.101135 551.979981,126.480134 551.965591,124.773911 C551.994346,123.266122 551.29304,121.813289 550.084235,120.877788 C548.39644,119.611768 546.017189,119.869675 544.655301,121.462497 Z" id="path-5-copy" stroke="#745BCC" fill="#BDAAFF"></path>
        </g>
    </g>
</svg>
